X:210
T: der Badchen Freylach (high)
O:klezmer
M: 2/4
L: 1/16
B: Stacy Phillips, Mel May's Klezmer Collection p.79.
K: Edor^A
|: "Em"eBeg abag | {a}b2{a}b2 gfe2
| eBeg abag | {a}b4 b4-
| bBeg abge | {a}b2{a}b2 gfe2 |
| "B7"fgag fefg | "Em"e8
:: "Em"bc'd'c' e'd'c'b | abc'd' b4
| e'd'c'b abc'd' | b4 b4 |
| bc'd'c' e'd'c'b | abc'd' b4
|1 bc'd'c' "B7"bc'((3gfe) | "Em"fge2- e4
:|2 abc'b "B7"abgf | "Em"e8 |]





